X: 9277
T: Dance From Oas
R: polka
M: 2/4
K: Amixolydian
|:a3 e/f/|gf e>d|cA BB|A/B/c/d/ e2|
a3 e/f/|gf e>d|cA BB|B/c/A A2:|
|:c>A BB|cA d2|c>A BB|A/B/c/d/ e2|
c>A BB|cA d2|cA BB B/c/A A2:|
|:[E2A,2][EA,][EA,]|[EA,][EA,][E2A,2]|[E2A,2][EA,][EA,]|[EA,][EA,][E2A,2]|
[E2A,2][EA,][EA,]|[EA,][EA,][E2A,2]|[E2A,2][EA,][EA,]|[EA,][EA,][E2A,2]:|
|:[E2A,2][EA,][EA,]|[EA,][EA,][E2A,2]|[E2A,2][EA,][EA,]|[EA,][EA,][E2A,2]|
[E2A,2][EA,][EA,]|[EA,][EA,][E2A,2]|[E2A,2][EA,][EA,][EA,][EA,][E2A,2]:|

